public/images/header-logo.svg

<?xml version="1.0" encoding="UTF-8"?><svg width="120px" height="33px" viewBox="0 0 120 33" xmlns="http://www.w3.org/2000/svg" xmlns:xlink="http://www.w3.org/1999/xlink"><g transform="translate(0 .5)" fill="none" fill-rule="evenodd"><path d="M20 2.236L5.618 31h28.764L20 2.236z" stroke="#FFFFFF" stroke-width="2"/><path fill="#FFFFFF" d="M12 2l12 24H0M49.392 21.6H45.92l4.336-11.2h2.976l4.448 11.2h-3.568l-.72-1.872h-3.328l-.672 1.872zm2.368-7.648l-1.168 3.152h2.24l-1.072-3.152zM65.792 21.6h-5.264V10.4h5.264c3.264 0 5.696 2.512 5.696 5.6 0 3.104-2.432 5.6-5.696 5.6zm-.464-8.32h-1.44v5.44h1.44c1.728 0 2.8-1.072 2.8-2.72 0-1.664-1.072-2.736-2.8-2.72zm15.04 8.496c-3.776 0-6.048-2.656-6.048-5.776 0-3.12 2.272-5.776 6.048-5.776 3.776 0 6.048 2.656 6.048 5.776 0 3.12-2.272 5.776-6.048 5.776zm0-2.88c1.712 0 2.688-1.328 2.688-2.896 0-1.568-.976-2.896-2.688-2.896-1.712 0-2.688 1.328-2.688 2.896 0 1.568.976 2.896 2.688 2.896zM96.912 21.6h2.608V10.4h-3.36v5.248L92.432 10.4h-2.624v11.2h3.36v-5.344l3.744 5.344zm9.92-11.2h-3.36v11.2h3.36V10.4zm3.264 7.872c.336 2.256 2.096 3.504 4.688 3.504 2.432 0 4.576-1.088 4.576-3.472-.048-1.584-.832-2.672-3.328-3.536l-1.248-.432c-.688-.24-.912-.528-.912-.848 0-.48.512-.704 1.056-.704.8 0 1.12.496 1.344 1.12l2.688-.768c-.64-1.872-1.984-2.912-4.096-2.912-2.448 0-4.272 1.392-4.272 3.552.032 2.384 2.752 3.104 3.296 3.28l1.264.48c.8.256.944.608.944.88 0 .544-.544.8-1.312.8-1.104 0-1.76-.544-1.984-1.568l-2.704.624z"/></g></svg>

<?xml version="1.0" encoding="UTF-8"?>
<svg width="120px" height="33px" viewBox="0 0 120 33" version="1.1" xmlns="http://www.w3.org/2000/svg" xmlns:xlink="http://www.w3.org/1999/xlink">
    <!-- Generator: Sketch 46.1 (44463) - http://www.bohemiancoding.com/sketch -->
    <title>Logo - Default</title>
    <desc>Created with Sketch.</desc>
    <defs></defs>
    <g id="Adonis---Branding" stroke="none" stroke-width="1" fill="none" fill-rule="evenodd">
        <g id="Adonis---Landing" transform="translate(-165.000000, -34.000000)">
            <g id="Logo---Default" transform="translate(165.000000, 34.500000)">
                <g>
                    <path d="M20,2.23606798 L5.61803399,31 L34.381966,31 L20,2.23606798 Z" id="Shape" stroke="#FFFFFF" stroke-width="2"></path>
                    <polygon id="Shape" fill="#FFFFFF" points="12 2 24 26 0 26"></polygon>
                    <path d="M49.392,21.6 L45.92,21.6 L50.256,10.4 L53.232,10.4 L57.68,21.6 L54.112,21.6 L53.392,19.728 L50.064,19.728 L49.392,21.6 Z M51.76,13.952 L50.592,17.104 L52.832,17.104 L51.76,13.952 Z M65.792,21.6 L60.528,21.6 L60.528,10.4 L65.792,10.4 C69.056,10.4 71.488,12.912 71.488,16 C71.488,19.104 69.056,21.6 65.792,21.6 Z M65.328,13.28 L63.888,13.28 L63.888,18.72 L65.328,18.72 C67.056,18.72 68.128,17.648 68.128,16 C68.128,14.336 67.056,13.264 65.328,13.28 Z M80.368,21.776 C76.592,21.776 74.32,19.12 74.32,16 C74.32,12.88 76.592,10.224 80.368,10.224 C84.144,10.224 86.416,12.88 86.416,16 C86.416,19.12 84.144,21.776 80.368,21.776 Z M80.368,18.896 C82.08,18.896 83.056,17.568 83.056,16 C83.056,14.432 82.08,13.104 80.368,13.104 C78.656,13.104 77.68,14.432 77.68,16 C77.68,17.568 78.656,18.896 80.368,18.896 Z M96.912,21.6 L99.52,21.6 L99.52,10.4 L96.16,10.4 L96.16,15.648 L92.432,10.4 L89.808,10.4 L89.808,21.6 L93.168,21.6 L93.168,16.256 L96.912,21.6 Z M106.832,10.4 L103.472,10.4 L103.472,21.6 L106.832,21.6 L106.832,10.4 Z M110.096,18.272 C110.432,20.528 112.192,21.776 114.784,21.776 C117.216,21.776 119.36,20.688 119.36,18.304 C119.312,16.72 118.528,15.632 116.032,14.768 L114.784,14.336 C114.096,14.096 113.872,13.808 113.872,13.488 C113.872,13.008 114.384,12.784 114.928,12.784 C115.728,12.784 116.048,13.28 116.272,13.904 L118.96,13.136 C118.32,11.264 116.976,10.224 114.864,10.224 C112.416,10.224 110.592,11.616 110.592,13.776 C110.624,16.16 113.344,16.88 113.888,17.056 L115.152,17.536 C115.952,17.792 116.096,18.144 116.096,18.416 C116.096,18.96 115.552,19.216 114.784,19.216 C113.68,19.216 113.024,18.672 112.8,17.648 L110.096,18.272 Z" id="ADONIS" fill="#FFFFFF"></path>
                </g>
            </g>
        </g>
    </g>
</svg>
